X:1
T:O come sei gentile
T:Bartolomeo Mutiis Conte di Cesana
T:Source : Musiche a uno, doi e tre voci---Venetia---Heredi di Angelo Gardano---1613. Editor: André Vierendeels (06/11/16).
T:O come sei gentile
T:©
T:©
T:©
T:©
T:©
C:Bartolomeo Mutiis
C:Conte di Cesana
Z:©
%%score [ 1 2 ] 3
L:1/8
Q:1/4=97
M:4/4
K:F
V:1 treble nm="Soprano 1" snm="S 1"
V:2 treble nm="Soprano 2" snm="S 2"
V:3 bass nm="MusicXML Part"
V:1
 B6 c2 | d6 cB | A2 B/G/A/B/ ^c4 | dFFG AAAB | c6 A2 | G4 G4 | z2 GA B4- | B2 AB c4- | c2 B2 A4- | %9
w: O _|_ co- me|sei gen- * * * ti-|le, car' au- gel- lin, car' au- gel-|lin, o|quan- to|è'il mio stat'|_ a- mo- ros'|_ al tuo|
 A4 d4 | d4 ^c4 | d8 :: B2 c2 d>_e d/c/d/c/ | Bc/B/ AB/A/ G4 | z8 | z4 z2 F2 | FGFG ABcA | %17
w: _ si-|mi- *|le,|tu pri- gion _ _ _ _ _|_ _ _ _ _ _ _||io|can- * * * * * * *|
 =B2 c4 B2 | c8 | z8 | z8 | z4 z2 A2 | =B3 A B2 G2 | A4 c4- | c2 BA B4- | B4 A4 | z8 | z8 | z8 :: %29
w: |ti|||io|can- ti per co-|lei che|_ t'ha le- ga-|* to||||
 z4 A4 | A3 G A3 B | A4 A4 | A2 B2 c4 | c4 B4 | A4 A4 | z4 A4 | A3 G A2 B/G/A/B/ | c8 | %38
w: Ma'in|que- st'è dif- fe-|ren- te|la mia for-|te do-|len- te|che|gio- va pur à _ _ _|te|
 z2 F2 DEDE | FGFG ABAB | c6 c2 | c4 =B4 | c8 | z2 E2 CDCD | EFEF GAGA | BcBc d3 d | d4 ^c4 | d8 | %48
w: l'es- ser _ _ _|_ _ _ _ _ _ _ _|* ca-|no- *|ro,|l'es- ser _ _ _|_ _ _ _ _ _ _ _|* * * * * ca-|no- *|ro,|
 z2 B2 B2 c2 | d2 d2 z2 c2 | c2 d2 _e2 e2 | z2 d2 d2 e2 | ff_ed c4- | c2 B2 BABG | A8 | G2 z2 z4 :| %56
w: vi- vi can-|tan- do, vi-|vi can- tan- do,|vi- vi can-|tan- do'et io can- tan-|* do mo- * * *||ro!|
V:2
 G6 A2 | B6 AG | F2 G/E/F/G/ A4 | ^FDDE FFFG | A6 F2 | E4 E4 | z2 EF G4- | G2 FG A4- | A2 G2 F4- | %9
w: O _|_ co- me|sei gen- * * * ti-|le, car' au- gel- lin, car' au- gel-|lin, o|quan- to|è'il mio stat'|_ a- mo- ros'|_ al tuo|
 F4 D4 | E8 | D8 :: z8 | z8 | A2 B2 cd/c/ Bc/B/ | AB/A/ GA/G/ F4 | z8 | z8 | z4 z2 G2 | GAGA BcdB | %20
w: _ si-|mi-|le,|||io pri- gion _ _ _ _ _|_ _ _ _ _ _ _|||io|can- * * * * * * *|
 ^c2 d4 c2 | d8 | z8 | z8 | z8 | z4 z2 FF | F/E/D/E/ F/G/A/B/ c4- | c2 dc G4 | F8 :: z4 F4 | %30
w: |ti||||ed' io|can- * * * * * * * *|* to per le-|i.|Ma'in|
 F3 E F3 G | F4 F4 | F2 G2 A4 | A4 G4 | ^F4 F4 | z4 F4 | F3 E F2 G/E/F/G/ | A4 z2 F2 | DEDE FGFG | %39
w: que- st'è dif- fe-|ren- te|la mia for-|te do-|len- te|che|gio- va pur à _ _ _|te l'es-|ser _ _ _ _ _ _ _|
 ABAB cdcd | _e6 d2 | d8 | c4 z2 E2 | CDCD EFEF | GAGA BcBc | dede f2 f2 | e8 | d8 | z8 | %49
w: _ _ _ _ _ _ _ _|* ca-|no-|ro, l'es-|ser _ _ _ _ _ _ _|_ _ _ _ _ _ _ _|* * * * * ca-|no-|ro,||
 z dcB A2 A2 | z4 z _edc | B2 B2 z4 | z dcB A4- | A2 G2 G4- | G2 ^FE F4 | G2 z2 z4 :| %56
w: vi- vi can- tan- do,|vi- vi can-|tan- do,|vi- vi can- tan|_ do mo-||ro!|
V:3
"^BC" G,,8 | G,,2 A,,2 B,,2 C,2 |"^#" D,2 C,B,, A,,4 | D,4 D,4 | A,,4 F,,4 | C,8 | C,4 G,,4 | %7
 D,4 A,,4- | A,,2 B,,C, D,4- | D,4 B,,4 |"^#" A,,8 | D,8 :: G,,8 | G,,8 | F,,8 | F,,8 | B,,4 F,,4 | %17
"^-natural" G,,8 | C,8 | C,4 G,,4 |"^#" A,,8 | D,4 D,4 |"^-natural""^-natural" G,3 F, G,2 C,2 | %23
 F,8 |"^6  5" _E,8 |"^6    5" D,8 | D,4 A,,4 | C,8 | F,,8 :: D,8 | D,8 | D,4 D,2 E,2 | F,4 F,4 | %33
"^7         6" D,8 |"^5" D,8 | D,8 | D,4 D,2 G,,2 | F,,8 | B,,8 | F,,8 | C,8 |"^-natural" G,,8 | %42
 C,8 | C,8 | C,4 G,,4 | G,,4 D,4 |"^#" A,,8 | D,8 | G,4 G,2 _E,2 | D,4 F,4 |"^b" F,2 D,2 C,4 | %51
 G,,4 G,,2 C,2 | B,,4 F,,4 | G,,8 |"^#" D,8 | G,,2 z2 z4 :| %56

